icons/svg/subway/subway_santiago.svg

<?xml version="1.0" encoding="UTF-8" standalone="no"?>
<svg
   xmlns:dc="http://purl.org/dc/elements/1.1/"
   xmlns:cc="http://creativecommons.org/ns#"
   xmlns:rdf="http://www.w3.org/1999/02/22-rdf-syntax-ns#"
   xmlns:svg="http://www.w3.org/2000/svg"
   xmlns="http://www.w3.org/2000/svg"
   xmlns:sodipodi="http://sodipodi.sourceforge.net/DTD/sodipodi-0.dtd"
   xmlns:inkscape="http://www.inkscape.org/namespaces/inkscape"
   width="16"
   height="16"
   id="svg2"
   version="1.1"
   inkscape:version="0.91 r13725"
   sodipodi:docname="subway_santiago.svg">
  <defs
     id="defs13">
    <linearGradient
       gradientTransform="matrix(0.08596979,0,0,0.08596979,0.67480439,1.9432845)"
       x1="87.101639"
       y1="121.69753"
       x2="87.260849"
       y2="1.2385538"
       id="l1"
       gradientUnits="userSpaceOnUse">
      <stop
         style="stop-color:#e92203;stop-opacity:1"
         offset="0"
         id="stop5" />
      <stop
         style="stop-color:#ff0000;stop-opacity:0.64628822"
         offset="1"
         id="stop7" />
    </linearGradient>
    <linearGradient
       gradientTransform="matrix(0.08400469,0,0,0.08400469,0.8422306,2.0814238)"
       x1="87.101639"
       y1="121.69753"
       x2="87.260849"
       y2="1.2385538"
       id="l1-2"
       gradientUnits="userSpaceOnUse">
      <stop
         style="stop-color:#e92203;stop-opacity:1"
         offset="0"
         id="stop5-8" />
      <stop
         style="stop-color:#ff0000;stop-opacity:0.64628822"
         offset="1"
         id="stop7-4" />
    </linearGradient>
  </defs>
  <sodipodi:namedview
     pagecolor="#ffffff"
     bordercolor="#666666"
     borderopacity="1"
     objecttolerance="10"
     gridtolerance="10"
     guidetolerance="10"
     inkscape:pageopacity="0"
     inkscape:pageshadow="2"
     inkscape:window-width="1920"
     inkscape:window-height="1006"
     id="namedview11"
     showgrid="true"
     inkscape:zoom="32"
     inkscape:cx="8.6249746"
     inkscape:cy="10.246236"
     inkscape:window-x="1920"
     inkscape:window-y="0"
     inkscape:window-maximized="1"
     inkscape:current-layer="svg2"
     showguides="false"
     inkscape:snap-global="false">
    <sodipodi:guide
       position="0,0"
       orientation="0,580"
       id="guide2989" />
    <sodipodi:guide
       position="580,0"
       orientation="-580,0"
       id="guide2991" />
    <sodipodi:guide
       position="580,580"
       orientation="0,-580"
       id="guide2993" />
    <sodipodi:guide
       position="0,580"
       orientation="580,0"
       id="guide2995" />
    <sodipodi:guide
       position="0,0"
       orientation="0,580"
       id="guide2997" />
    <sodipodi:guide
       position="580,0"
       orientation="-580,0"
       id="guide2999" />
    <sodipodi:guide
       position="580,580"
       orientation="0,-580"
       id="guide3001" />
    <sodipodi:guide
       position="0,580"
       orientation="580,0"
       id="guide3003" />
    <inkscape:grid
       type="xygrid"
       id="grid3013"
       empspacing="5"
       visible="true"
       enabled="true"
       snapvisiblegridlinesonly="true" />
  </sodipodi:namedview>
  <metadata
     id="metadata2975">image/svg+xmlen<rdf:RDF>
  <cc:Work
     rdf:about="">
    <dc:format>image/svg+xml</dc:format>
    <dc:type
       rdf:resource="http://purl.org/dc/dcmitype/StillImage" />
    <dc:title />
  </cc:Work>
</rdf:RDF>
</metadata>
  <path
     style="fill:#fefefe;color:#000000;clip-rule:nonzero;display:inline;overflow:visible;visibility:visible;opacity:1;isolation:auto;mix-blend-mode:normal;color-interpolation:sRGB;color-interpolation-filters:linearRGB;solid-color:#000000;solid-opacity:1;fill-opacity:1;fill-rule:nonzero;stroke:none;stroke-width:1;stroke-linecap:butt;stroke-linejoin:miter;stroke-miterlimit:4;stroke-dasharray:none;stroke-dashoffset:0;stroke-opacity:1;filter-blend-mode:normal;filter-gaussianBlur-deviation:0;color-rendering:auto;image-rendering:auto;shape-rendering:auto;text-rendering:auto;enable-background:accumulate"
     d="m 8,4.0527344 c -0.5057715,0 -0.9923473,0.062086 -1.4589844,0.1855468 C 4.7525569,4.7094069 3.2128906,6.1215364 3.2128906,8 c 0,0.2257685 0.025921,0.4426457 0.064453,0.6386719 C 3.6583736,10.574184 5.6657098,11.947266 8,11.947266 10.586646,11.947266 12.787109,10.238501 12.787109,8 12.787109,5.7613469 10.586621,4.0527344 8,4.0527344 Z"
     id="path4189"
     inkscape:connector-curvature="0"
     sodipodi:nodetypes="scscsss" />
  <path
     style="fill:#d00a2c"
     inkscape:connector-curvature="0"
     id="path5"
     d="M 9.0514219,7.9883759 7.9851024,9.9182614 6.9177429,7.9883759 7.9851636,6.0584897 9.0514219,7.9883759 Z m 2.1494021,0 -1.066931,1.9298855 -1.067543,-1.9298855 1.067543,-1.9298862 1.066931,1.9298862 z m -4.2980092,0 L 5.8366789,9.9182614 4.7691358,7.9883759 5.8366789,6.0584897 6.9028148,7.9883759 Z M 8.0002141,4.5431647 c 2.3734459,0 4.2967859,1.5475672 4.2967859,3.4568966 0,1.9091454 -1.92334,3.4567737 -4.2967859,3.4567737 -2.1415714,0 -3.9183217,-1.261547 -4.2430693,-2.9111639 -0.032915,-0.1674517 -0.054145,-0.3577241 -0.054145,-0.5456098 0,-1.6060559 1.339308,-2.8590994 2.9639019,-3.2870589 C 7.0919244,4.6005522 7.5348119,4.5431647 8.000214,4.5431647 M 4.0255448,8.1315382 c 0.08033,1.5639639 1.632731,2.8312628 3.6006102,2.9747928 0.165861,0.01174 0.3323338,0.01572 0.499602,0.01095 1.953685,-0.05384 3.546404,-1.2538381 3.771549,-2.7485448 0.02539,-0.1685535 0.03775,-0.3416334 0.03377,-0.515999 -0.0069,-0.3278639 -0.07103,-0.643618 -0.207647,-0.9309843 C 11.218995,5.8405027 9.9680322,5.0390959 8.4590086,4.9015615 8.2618231,4.882412 8.0623737,4.8761715 7.8618232,4.8810048 7.5908537,4.8877347 7.3274704,4.9153884 7.0730809,4.9620081 5.8497104,5.1662295 4.2607849,6.1018669 4.0467746,7.6611805 c -0.0238,0.1632303 -0.021719,0.3527077 -0.02123,0.4703577" />
  <path
     sodipodi:type="inkscape:offset"
     inkscape:radius="0"
     inkscape:original="M 8 4.5429688 C 7.5345979 4.5429688 7.0910383 4.6004404 6.6660156 4.7128906 C 5.0414217 5.1408501 3.703125 6.3939441 3.703125 8 C 3.703125 8.1878857 3.7248975 8.3774702 3.7578125 8.5449219 C 4.0825601 10.194538 5.8584286 11.457031 8 11.457031 C 10.373446 11.457031 12.296875 9.9091454 12.296875 8 C 12.296875 6.0906706 10.373446 4.5429688 8 4.5429688 z M 7.8613281 4.8808594 C 8.0618786 4.8760261 8.2617989 4.8831943 8.4589844 4.9023438 C 9.968008 5.0398782 11.218222 5.8406248 11.722656 6.921875 C 11.859273 7.2092413 11.924741 7.5256517 11.931641 7.8535156 C 11.935621 8.0278812 11.921874 8.2005871 11.896484 8.3691406 C 11.671339 9.8638473 10.078685 11.063348 8.125 11.117188 C 7.9577318 11.121958 7.7928141 11.117209 7.6269531 11.105469 C 5.6590739 10.961939 4.1057206 9.6948233 4.0253906 8.1308594 C 4.0249016 8.0132094 4.023075 7.8253397 4.046875 7.6621094 C 4.2608853 6.1027958 5.8488951 5.167112 7.0722656 4.9628906 C 7.3266551 4.9162709 7.5903586 4.8875893 7.8613281 4.8808594 z M 5.8359375 6.0585938 L 4.7695312 7.9882812 L 5.8359375 9.9179688 L 6.9023438 7.9882812 L 5.8359375 6.0585938 z M 7.984375 6.0585938 L 6.9179688 7.9882812 L 7.984375 9.9179688 L 9.0507812 7.9882812 L 7.984375 6.0585938 z M 10.134766 6.0585938 L 9.0664062 7.9882812 L 10.134766 9.9179688 L 11.201172 7.9882812 L 10.134766 6.0585938 z "
     style="fill:#d00a2c"
     id="path4170"
     d="m 8,4.5429688 c -0.4654021,0 -0.9089617,0.057472 -1.3339844,0.1699218 C 5.0414217,5.1408501 3.703125,6.3939441 3.703125,8 c 0,0.1878857 0.021772,0.3774702 0.054687,0.5449219 C 4.0825601,10.194538 5.8584286,11.457031 8,11.457031 10.373446,11.457031 12.296875,9.9091454 12.296875,8 12.296875,6.0906706 10.373446,4.5429688 8,4.5429688 Z M 7.8613281,4.8808594 c 0.2005505,-0.00483 0.4004708,0.00233 0.5976563,0.021484 1.5090236,0.1375344 2.7592376,0.938281 3.2636716,2.0195312 0.136617,0.2873663 0.202085,0.6037767 0.208985,0.9316406 0.004,0.1743656 -0.0098,0.3470715 -0.03516,0.515625 C 11.671339,9.8638473 10.078685,11.063348 8.125,11.117188 7.9577318,11.121958 7.7928141,11.117209 7.6269531,11.105469 5.6590739,10.961939 4.1057206,9.6948233 4.0253906,8.1308594 4.0249016,8.0132094 4.023075,7.8253397 4.046875,7.6621094 4.2608853,6.1027958 5.8488951,5.167112 7.0722656,4.9628906 7.3266551,4.9162709 7.5903586,4.8875893 7.8613281,4.8808594 Z M 5.8359375,6.0585938 4.7695312,7.9882812 5.8359375,9.9179688 6.9023438,7.9882812 5.8359375,6.0585938 Z m 2.1484375,0 L 6.9179688,7.9882812 7.984375,9.9179688 9.0507812,7.9882812 7.984375,6.0585938 Z m 2.150391,0 -1.0683598,1.9296874 1.0683598,1.9296876 1.066406,-1.9296876 -1.066406,-1.9296874 z" />
</svg>

<svg width="16" height="16" viewBox="0 0 16 16" fill="none" xmlns="http://www.w3.org/2000/svg">
<path d="M8 4.05273C7.49423 4.05273 7.00765 4.11482 6.54102 4.23828C4.75256 4.70941 3.21289 6.12154 3.21289 8C3.21289 8.22577 3.23881 8.44265 3.27734 8.63867C3.65837 10.5742 5.66571 11.9473 8 11.9473C10.5866 11.9473 12.7871 10.2385 12.7871 8C12.7871 5.76135 10.5866 4.05273 8 4.05273Z" fill="#FEFEFE"/>
<path d="M9.05142 7.98836L7.98511 9.91825L6.91775 7.98836L7.98517 6.05848L9.05142 7.98836ZM11.2008 7.98836L10.1339 9.91825L9.06635 7.98836L10.1339 6.05848L11.2008 7.98836ZM6.90282 7.98836L5.83668 9.91825L4.76914 7.98836L5.83668 6.05848L6.90282 7.98836V7.98836ZM8.00022 4.54315C10.3737 4.54315 12.297 6.09072 12.297 8.00005C12.297 9.90919 10.3737 11.4568 8.00022 11.4568C5.85865 11.4568 4.0819 10.1953 3.75715 8.54566C3.72423 8.37821 3.703 8.18793 3.703 8.00005C3.703 6.39399 5.04231 5.14095 6.6669 4.71299C7.09193 4.60054 7.53481 4.54315 8.00022 4.54315H8.00022ZM4.02555 8.13153C4.10588 9.69549 5.65828 10.9628 7.62616 11.1063C7.79202 11.1181 7.95849 11.122 8.12576 11.1173C10.0794 11.0634 11.6722 9.86343 11.8973 8.36872C11.9227 8.20017 11.9351 8.02709 11.9311 7.85272C11.9242 7.52486 11.86 7.20911 11.7234 6.92174C11.219 5.84049 9.96803 5.03908 8.45901 4.90155C8.26183 4.8824 8.06238 4.87616 7.86183 4.88099C7.59086 4.88772 7.32747 4.91538 7.07308 4.962C5.84971 5.16622 4.26079 6.10185 4.04678 7.66117C4.02298 7.8244 4.02506 8.01388 4.02555 8.13153" fill="#D00A2C"/>
<path d="M8 4.54297C7.5346 4.54297 7.09104 4.60044 6.66602 4.71289C5.04142 5.14085 3.70312 6.39394 3.70312 8C3.70312 8.18789 3.7249 8.37747 3.75781 8.54492C4.08256 10.1945 5.85843 11.457 8 11.457C10.3734 11.457 12.2969 9.90915 12.2969 8C12.2969 6.09067 10.3734 4.54297 8 4.54297ZM7.86133 4.88086C8.06188 4.87603 8.2618 4.88319 8.45898 4.90234C9.96801 5.03988 11.2182 5.84062 11.7227 6.92187C11.8593 7.20924 11.9247 7.52565 11.9316 7.85352C11.9356 8.02788 11.9218 8.20059 11.8965 8.36914C11.6713 9.86385 10.0787 11.0633 8.125 11.1172C7.95773 11.122 7.79281 11.1172 7.62695 11.1055C5.65907 10.9619 4.10572 9.69482 4.02539 8.13086C4.0249 8.01321 4.02307 7.82534 4.04688 7.66211C4.26089 6.1028 5.8489 5.16711 7.07227 4.96289C7.32666 4.91627 7.59036 4.88759 7.86133 4.88086ZM5.83594 6.05859L4.76953 7.98828L5.83594 9.91797L6.90234 7.98828L5.83594 6.05859ZM7.98438 6.05859L6.91797 7.98828L7.98438 9.91797L9.05078 7.98828L7.98438 6.05859ZM10.1348 6.05859L9.06641 7.98828L10.1348 9.91797L11.2012 7.98828L10.1348 6.05859V6.05859Z" fill="#D00A2C"/>
</svg>
